client/public/img/game/winter/obstacles/cargo_ship_stair_winter_3.svg

<?xml version="1.0" encoding="UTF-8" standalone="no"?>
<svg
   width="556.276"
   height="254.658"
   viewBox="0 0 147.181 67.378"
   version="1.1"
   id="svg18"
   sodipodi:docname="cargo_ship_stair_winter_3.svg"
   inkscape:version="1.3.2 (091e20e, 2023-11-25, custom)"
   xmlns:inkscape="http://www.inkscape.org/namespaces/inkscape"
   xmlns:sodipodi="http://sodipodi.sourceforge.net/DTD/sodipodi-0.dtd"
   xmlns="http://www.w3.org/2000/svg"
   xmlns:svg="http://www.w3.org/2000/svg">
  <defs
     id="defs18" />
  <sodipodi:namedview
     id="namedview18"
     pagecolor="#ffffff"
     bordercolor="#000000"
     borderopacity="0.25"
     inkscape:showpageshadow="2"
     inkscape:pageopacity="0.0"
     inkscape:pagecheckerboard="0"
     inkscape:deskcolor="#d1d1d1"
     inkscape:zoom="1.9882217"
     inkscape:cx="278.138"
     inkscape:cy="127.50087"
     inkscape:window-width="1920"
     inkscape:window-height="1017"
     inkscape:window-x="-8"
     inkscape:window-y="-8"
     inkscape:window-maximized="1"
     inkscape:current-layer="svg18" />
  <g
     transform="translate(-1398.221 152.032)"
     id="g18">
    <path
       d="M1415.846-147.227v57.767h124.751v-57.767h-110.89z"
       style="fill:#9a9a9a;fill-opacity:1;stroke:#262626;stroke-width:2.00001;stroke-dasharray:none;stroke-opacity:1"
       id="path1" />
    <g
       fill="#878787"
       stroke="#4d4d4d"
       stroke-linecap="square"
       stroke-width="1.666"
       style="stroke:#2b2b2b;stroke-width:.999541;stroke-opacity:1"
       id="g10">
      <path
         d="M1480.44-26.897h13.86V30.87h-13.86z"
         style="fill:#000;fill-opacity:.128713;stroke:#2b2b2b;stroke-width:1.99909;stroke-dasharray:none;stroke-opacity:1"
         transform="matrix(1.00093 0 0 1 -52.104 -120.33)"
         id="path2" />
      <path
         d="M1494.286-26.897h13.861V30.87h-13.86z"
         style="fill:#000;fill-opacity:.178218;stroke:#2b2b2b;stroke-width:1.99909;stroke-dasharray:none;stroke-opacity:1"
         transform="matrix(1.00093 0 0 1 -52.104 -120.33)"
         id="path3" />
      <path
         d="M1508.133-26.897h13.861V30.87h-13.86z"
         style="fill:#000;fill-opacity:.224422;stroke:#2b2b2b;stroke-width:1.99909;stroke-dasharray:none;stroke-opacity:1"
         transform="matrix(1.00093 0 0 1 -52.104 -120.33)"
         id="path4" />
      <path
         d="M1521.98-26.897h13.861V30.87h-13.861Z"
         style="fill:#000;fill-opacity:.273927;stroke:#2b2b2b;stroke-width:1.99909;stroke-dasharray:none;stroke-opacity:1"
         transform="matrix(1.00093 0 0 1 -52.104 -120.33)"
         id="path5" />
      <path
         d="M1535.827-26.897h13.861V30.87h-13.861z"
         style="fill:#000;fill-opacity:.346535;stroke:#2b2b2b;stroke-width:1.99909;stroke-dasharray:none;stroke-opacity:1"
         transform="matrix(1.00093 0 0 1 -52.104 -120.33)"
         id="path6" />
      <path
         d="M1549.674-26.897h13.861V30.87h-13.861z"
         style="fill:#000;fill-opacity:.425743;stroke:#2b2b2b;stroke-width:1.99909;stroke-dasharray:none;stroke-opacity:1"
         transform="matrix(1.00093 0 0 1 -52.104 -120.33)"
         id="path7" />
      <path
         d="M1563.52-26.897h13.862V30.87h-13.861z"
         style="fill:#000;fill-opacity:.475248;stroke:#2b2b2b;stroke-width:1.99909;stroke-dasharray:none;stroke-opacity:1"
         transform="matrix(1.00093 0 0 1 -52.104 -120.33)"
         id="path8" />
      <path
         d="M1577.367-26.897h13.862V30.87h-13.862z"
         style="fill:#000;fill-opacity:.514852;stroke:#2b2b2b;stroke-width:1.99909;stroke-dasharray:none;stroke-opacity:1"
         transform="matrix(1.00093 0 0 1 -52.104 -120.33)"
         id="path9" />
      <path
         d="M1466.593-26.897h13.86V30.87h-13.86z"
         style="fill:#000;fill-opacity:.0693069;stroke:#2b2b2b;stroke-width:1.99909;stroke-dasharray:none;stroke-opacity:1"
         transform="matrix(1.00093 0 0 1 -52.104 -120.33)"
         id="path10" />
    </g>
    <rect
       width="124.751"
       height="3.358"
       x="1415.846"
       y="-148.906"
       ry="1.679"
       style="fill:#a3a3a3;fill-opacity:1;stroke:#171717;stroke-width:2;stroke-linecap:round;stroke-linejoin:round;stroke-dasharray:none;stroke-opacity:1"
       id="rect10" />
    <rect
       width="124.751"
       height="3.358"
       x="1415.846"
       y="-91.139"
       ry="1.679"
       style="fill:#a3a3a3;fill-opacity:1;stroke:#171717;stroke-width:2;stroke-linecap:round;stroke-linejoin:round;stroke-dasharray:none;stroke-opacity:1"
       id="rect11" />
    <circle
       cx="1415.846"
       cy="-147.227"
       r="3.806"
       style="fill:#a3a3a3;fill-opacity:1;stroke:#171717;stroke-width:2;stroke-linecap:round;stroke-linejoin:round;stroke-dasharray:none;stroke-opacity:1"
       id="circle11" />
    <circle
       cx="1499.018"
       cy="-147.227"
       r="3.806"
       style="fill:#a3a3a3;fill-opacity:1;stroke:#171717;stroke-width:2;stroke-linecap:round;stroke-linejoin:round;stroke-dasharray:none;stroke-opacity:1"
       id="circle13" />
    <circle
       cx="1540.597"
       cy="-147.227"
       r="3.806"
       style="fill:#a3a3a3;fill-opacity:1;stroke:#171717;stroke-width:2;stroke-linecap:round;stroke-linejoin:round;stroke-dasharray:none;stroke-opacity:1"
       id="circle14" />
    <circle
       cx="1415.846"
       cy="-89.46"
       r="3.806"
       style="fill:#a3a3a3;fill-opacity:1;stroke:#171717;stroke-width:2;stroke-linecap:round;stroke-linejoin:round;stroke-dasharray:none;stroke-opacity:1"
       id="circle15" />
    <circle
       cx="1457.439"
       cy="-89.46"
       r="3.806"
       style="fill:#a3a3a3;fill-opacity:1;stroke:#171717;stroke-width:2;stroke-linecap:round;stroke-linejoin:round;stroke-dasharray:none;stroke-opacity:1"
       id="circle16" />
    <circle
       cx="1540.597"
       cy="-89.46"
       r="3.806"
       style="fill:#a3a3a3;fill-opacity:1;stroke:#171717;stroke-width:2;stroke-linecap:round;stroke-linejoin:round;stroke-dasharray:none;stroke-opacity:1"
       id="circle18" />
  </g>
  <path
     id="path18"
     style="fill:#c9d1d9;stroke:#a2a5c0;stroke-width:2.30002;stroke-linecap:square;stroke-linejoin:round;stroke-miterlimit:10.8;paint-order:fill markers stroke"
     d="M 31.620732 3.12585 C 31.646957 4.334412 31.753484 5.4710796 31.940608 6.4837764 L 78.050343 6.4837764 C 79.70408 5.3365329 81.216491 4.2002201 82.513625 3.12585 L 31.620732 3.12585 z " />
  <circle
     cx="1457.439"
     cy="-147.227"
     r="3.806"
     style="fill:#c9d1d9;fill-opacity:1;stroke:#a2a5c0;stroke-width:2;stroke-linecap:round;stroke-linejoin:round;stroke-dasharray:none;stroke-opacity:1"
     id="circle12"
     transform="translate(-1398.221,152.032)" />
  <path
     id="path19"
     style="fill:#c9d1d9;fill-opacity:1;stroke:#a2a5c0;stroke-width:2.30002;stroke-linecap:square;stroke-linejoin:round;stroke-miterlimit:10.8;stroke-opacity:1;paint-order:fill markers stroke"
     d="M 84.167784 60.893243 C 82.903102 62.098369 81.749365 63.253011 81.134902 64.251169 L 125.42356 64.251169 C 128.45636 63.027996 131.85487 61.889266 134.59456 60.893243 L 84.167784 60.893243 z " />
  <path
     id="path20"
     style="fill:#c9d1d9;fill-opacity:1;stroke:#a2a5c0;stroke-width:2.30002;stroke-linecap:square;stroke-linejoin:round;stroke-miterlimit:10.8;stroke-opacity:1;paint-order:fill markers stroke"
     d="M 31.973681 60.893243 C 32.431047 62.056642 32.59921 63.238964 32.315261 64.251169 L 42.348733 64.251169 C 41.839965 63.361836 41.080002 62.109954 41.445948 60.893243 L 31.973681 60.893243 z " />
  <circle
     cx="1499.018"
     cy="-89.46"
     r="3.806"
     style="fill:#c1c8d4;fill-opacity:1;stroke:#a2a5c0;stroke-width:2;stroke-linecap:round;stroke-linejoin:round;stroke-dasharray:none;stroke-opacity:1"
     id="circle17"
     transform="translate(-1398.221,152.032)" />
  <path
     style="fill:#c1c8d4;fill-opacity:1;stroke:#a2a5c0;stroke-width:2.30002;stroke-linecap:square;stroke-linejoin:round;stroke-miterlimit:10.8;stroke-opacity:1;paint-order:fill markers stroke"
     d="m 117.77142,11.311329 c -2.99932,-0.133949 -4.39148,-2.3953507 -8.64988,-1.7299755 -4.2584,0.6653755 0.79845,3.4599515 2.6615,4.5245515 1.86305,1.0646 13.17443,1.729976 16.5013,0.931525 3.32688,-0.79845 2.79458,-6.1214517 -1.86305,-5.0568514 -4.65762,1.0646004 -4.50938,1.5156634 -8.64987,1.3307504 z"
     id="path21"
     sodipodi:nodetypes="ssssss" />
  <path
     style="fill:#c1c8d4;fill-opacity:1;stroke:#a2a5c0;stroke-width:2.30002;stroke-linecap:square;stroke-linejoin:round;stroke-miterlimit:10.8;stroke-opacity:1;paint-order:fill markers stroke"
     d="m 58.419945,30.341061 c -9.315255,3.060725 -21.558158,5.189926 -13.839804,13.174428 7.71835,7.984502 5.05685,15.436707 25.417332,10.512929 20.360482,-4.923776 41.918637,-18.098205 19.695106,-17.033606 -22.22353,1.064601 -24.329454,-8.93508 -31.272634,-6.653751 z"
     id="path22"
     sodipodi:nodetypes="sssss" />
</svg>

<svg xmlns="http://www.w3.org/2000/svg" width="556.276" height="254.658" viewBox="0 0 147.181 67.378"><g transform="translate(-1398.221 152.032)"><path d="M1415.846-147.227v57.767h124.751v-57.767h-110.89z" style="fill:#9a9a9a;fill-opacity:1;stroke:#262626;stroke-width:2.00001;stroke-dasharray:none;stroke-opacity:1"/><g fill="#878787" stroke="#4d4d4d" stroke-linecap="square" stroke-width="1.666" style="stroke:#2b2b2b;stroke-width:.999541;stroke-opacity:1"><path d="M1480.44-26.897h13.86V30.87h-13.86z" style="fill:#000;fill-opacity:.128713;stroke:#2b2b2b;stroke-width:1.99909;stroke-dasharray:none;stroke-opacity:1" transform="matrix(1.00093 0 0 1 -52.104 -120.33)"/><path d="M1494.286-26.897h13.861V30.87h-13.86z" style="fill:#000;fill-opacity:.178218;stroke:#2b2b2b;stroke-width:1.99909;stroke-dasharray:none;stroke-opacity:1" transform="matrix(1.00093 0 0 1 -52.104 -120.33)"/><path d="M1508.133-26.897h13.861V30.87h-13.86z" style="fill:#000;fill-opacity:.224422;stroke:#2b2b2b;stroke-width:1.99909;stroke-dasharray:none;stroke-opacity:1" transform="matrix(1.00093 0 0 1 -52.104 -120.33)"/><path d="M1521.98-26.897h13.861V30.87h-13.861Z" style="fill:#000;fill-opacity:.273927;stroke:#2b2b2b;stroke-width:1.99909;stroke-dasharray:none;stroke-opacity:1" transform="matrix(1.00093 0 0 1 -52.104 -120.33)"/><path d="M1535.827-26.897h13.861V30.87h-13.861z" style="fill:#000;fill-opacity:.346535;stroke:#2b2b2b;stroke-width:1.99909;stroke-dasharray:none;stroke-opacity:1" transform="matrix(1.00093 0 0 1 -52.104 -120.33)"/><path d="M1549.674-26.897h13.861V30.87h-13.861z" style="fill:#000;fill-opacity:.425743;stroke:#2b2b2b;stroke-width:1.99909;stroke-dasharray:none;stroke-opacity:1" transform="matrix(1.00093 0 0 1 -52.104 -120.33)"/><path d="M1563.52-26.897h13.862V30.87h-13.861z" style="fill:#000;fill-opacity:.475248;stroke:#2b2b2b;stroke-width:1.99909;stroke-dasharray:none;stroke-opacity:1" transform="matrix(1.00093 0 0 1 -52.104 -120.33)"/><path d="M1577.367-26.897h13.862V30.87h-13.862z" style="fill:#000;fill-opacity:.514852;stroke:#2b2b2b;stroke-width:1.99909;stroke-dasharray:none;stroke-opacity:1" transform="matrix(1.00093 0 0 1 -52.104 -120.33)"/><path d="M1466.593-26.897h13.86V30.87h-13.86z" style="fill:#000;fill-opacity:.0693069;stroke:#2b2b2b;stroke-width:1.99909;stroke-dasharray:none;stroke-opacity:1" transform="matrix(1.00093 0 0 1 -52.104 -120.33)"/></g><rect width="124.751" height="3.358" x="1415.846" y="-148.906" ry="1.679" style="fill:#a3a3a3;fill-opacity:1;stroke:#171717;stroke-width:2;stroke-linecap:round;stroke-linejoin:round;stroke-dasharray:none;stroke-opacity:1"/><rect width="124.751" height="3.358" x="1415.846" y="-91.139" ry="1.679" style="fill:#a3a3a3;fill-opacity:1;stroke:#171717;stroke-width:2;stroke-linecap:round;stroke-linejoin:round;stroke-dasharray:none;stroke-opacity:1"/><circle cx="1415.846" cy="-147.227" r="3.806" style="fill:#a3a3a3;fill-opacity:1;stroke:#171717;stroke-width:2;stroke-linecap:round;stroke-linejoin:round;stroke-dasharray:none;stroke-opacity:1"/><circle cx="1499.018" cy="-147.227" r="3.806" style="fill:#a3a3a3;fill-opacity:1;stroke:#171717;stroke-width:2;stroke-linecap:round;stroke-linejoin:round;stroke-dasharray:none;stroke-opacity:1"/><circle cx="1540.597" cy="-147.227" r="3.806" style="fill:#a3a3a3;fill-opacity:1;stroke:#171717;stroke-width:2;stroke-linecap:round;stroke-linejoin:round;stroke-dasharray:none;stroke-opacity:1"/><circle cx="1415.846" cy="-89.46" r="3.806" style="fill:#a3a3a3;fill-opacity:1;stroke:#171717;stroke-width:2;stroke-linecap:round;stroke-linejoin:round;stroke-dasharray:none;stroke-opacity:1"/><circle cx="1457.439" cy="-89.46" r="3.806" style="fill:#a3a3a3;fill-opacity:1;stroke:#171717;stroke-width:2;stroke-linecap:round;stroke-linejoin:round;stroke-dasharray:none;stroke-opacity:1"/><circle cx="1540.597" cy="-89.46" r="3.806" style="fill:#a3a3a3;fill-opacity:1;stroke:#171717;stroke-width:2;stroke-linecap:round;stroke-linejoin:round;stroke-dasharray:none;stroke-opacity:1"/></g><path d="M31.62 3.126c.027 1.208.133 2.345.32 3.358h46.11a67 67 0 0 0 4.464-3.358z" style="fill:#c9d1d9;stroke:#a2a5c0;stroke-width:2.30002;stroke-linecap:square;stroke-linejoin:round;stroke-miterlimit:10.8;paint-order:fill markers stroke"/><circle cx="1457.439" cy="-147.227" r="3.806" style="fill:#c9d1d9;fill-opacity:1;stroke:#a2a5c0;stroke-width:2;stroke-linecap:round;stroke-linejoin:round;stroke-dasharray:none;stroke-opacity:1" transform="translate(-1398.221 152.032)"/><path d="M84.168 60.893c-1.265 1.205-2.419 2.36-3.033 3.358h44.289c3.032-1.223 6.43-2.362 9.17-3.358zM31.974 60.893c.457 1.164.625 2.346.341 3.358H42.35c-.509-.89-1.269-2.141-.903-3.358z" style="fill:#c9d1d9;fill-opacity:1;stroke:#a2a5c0;stroke-width:2.30002;stroke-linecap:square;stroke-linejoin:round;stroke-miterlimit:10.8;stroke-opacity:1;paint-order:fill markers stroke"/><circle cx="1499.018" cy="-89.46" r="3.806" style="fill:#c1c8d4;fill-opacity:1;stroke:#a2a5c0;stroke-width:2;stroke-linecap:round;stroke-linejoin:round;stroke-dasharray:none;stroke-opacity:1" transform="translate(-1398.221 152.032)"/><path d="M117.771 11.311c-2.999-.134-4.391-2.395-8.65-1.73-4.258.666.799 3.46 2.662 4.525s13.174 1.73 16.501.931 2.795-6.121-1.863-5.056c-4.657 1.064-4.51 1.515-8.65 1.33zM58.42 30.341c-9.315 3.06-21.558 5.19-13.84 13.174 7.718 7.985 5.057 15.437 25.417 10.513 20.361-4.923 41.92-18.098 19.696-17.033S65.363 28.06 58.42 30.34z" style="fill:#c1c8d4;fill-opacity:1;stroke:#a2a5c0;stroke-width:2.30002;stroke-linecap:square;stroke-linejoin:round;stroke-miterlimit:10.8;stroke-opacity:1;paint-order:fill markers stroke"/></svg>
